X: 42
T:Schotish frn Ly
M:2/4
L:1/16
S:House Band, Stonetown
K:G
:G2Ac BGG2|G2Ac BGG2|dggd BcdB|GABc d4:|!
:A2AB cBAG|FDEF GBdB|A2AB cBAG|FDEF G4:|!
:e2Bg e2Bg|e2Bg e2Bg|fe^dc Bc^de|fe^dcB4:|!
:Bc|d2BG DGBG|EGFA G2Bc|d2BG DGBG|EGFA G2:|!
:ga|b2ba gfed|egfa g2ga|b2ba gfed|(3efg fag2:|
